packages/ffe-icons/icons/filled/sm/frame_reload.svg

<svg xmlns="http://www.w3.org/2000/svg" height="20" viewBox="0 -960 960 960" width="20"><path d="M479.875-294.154q-61.501 0-109.765-35.616-48.264-35.615-67.11-91.846-2.461-7.692 2.042-14.385 4.504-6.693 11.916-8.654 6.273-1.96 12.657 1.533 6.385 3.492 9.231 10.276 17.824 45.26 54.835 74.13 37.011 28.87 86.319 28.87 62.207 0 106.181-44.044 43.973-44.045 43.973-106.352 0-62.308-43.973-106.11Q542.207-630.154 480-630.154q-35.872 0-67.283 16.846-31.41 16.847-55.718 43.462H408q7.733 0 12.789 5.052 5.057 5.051 5.057 12.776 0 7.726-5.057 12.795-5.056 5.069-12.789 5.069h-81.692q-13.665 0-22.91-9.244-9.244-9.245-9.244-22.91V-648q0-7.733 5.052-12.789 5.051-5.057 12.776-5.057t12.795 5.057q5.069 5.056 5.069 12.789v55.616q28-34.077 66.731-53.769 38.73-19.693 83.423-19.693 77.372 0 131.609 54.303 54.237 54.303 54.237 131.769 0 77.466-54.237 131.543-54.237 54.077-131.734 54.077ZM228.309-164.001q-27.008 0-45.658-18.65-18.65-18.65-18.65-45.658v-129.692q0-11.049 7.419-18.524Q178.838-384 189.804-384q10.966 0 18.581 7.475T216-358.001v129.692q0 4.616 3.846 8.463 3.847 3.846 8.463 3.846h129.692q11.049 0 18.524 7.418Q384-201.164 384-190.198q0 10.966-7.475 18.581-7.475 7.616-18.524 7.616H228.309Zm503.382 0H601.999q-11.049 0-18.524-7.419Q576-178.838 576-189.804q0-10.966 7.475-18.581T601.999-216h129.692q4.616 0 8.463-3.846 3.846-3.847 3.846-8.463v-129.692q0-11.049 7.418-18.524Q758.836-384 769.802-384q10.966 0 18.581 7.475 7.616 7.475 7.616 18.524v129.692q0 27.008-18.65 45.658-18.65 18.65-45.658 18.65Zm-567.69-437.998v-129.692q0-27.008 18.65-45.658 18.65-18.65 45.658-18.65h129.692q11.049 0 18.524 7.419Q384-781.162 384-770.196q0 10.966-7.475 18.581T358.001-744H228.309q-4.616 0-8.463 3.846-3.846 3.847-3.846 8.463v129.692q0 11.049-7.418 18.524Q201.164-576 190.198-576q-10.966 0-18.581-7.475-7.616-7.475-7.616-18.524Zm579.999 0v-129.692q0-4.616-3.846-8.463-3.847-3.846-8.463-3.846H601.999q-11.049 0-18.524-7.418Q576-758.836 576-769.802q0-10.966 7.475-18.581 7.475-7.616 18.524-7.616h129.692q27.008 0 45.658 18.65 18.65 18.65 18.65 45.658v129.692q0 11.049-7.419 18.524Q781.162-576 770.196-576q-10.966 0-18.581-7.475T744-601.999Z"/></svg>

<svg xmlns="http://www.w3.org/2000/svg" height="20" viewBox="0 -960 960 960" width="20"><path d="M479.88-294.15q-61.51 0-109.77-35.62T303-421.62q-2.46-7.69 2.04-14.38 4.51-6.69 11.92-8.65 6.27-1.96 12.66 1.53 6.38 3.49 9.23 10.27 17.82 45.26 54.83 74.13 37.01 28.87 86.32 28.87 62.21 0 106.18-44.04 43.97-44.05 43.97-106.35 0-62.31-43.97-106.11T480-630.15q-35.87 0-67.28 16.84-31.41 16.85-55.72 43.46h51q7.73 0 12.79 5.06 5.06 5.05 5.06 12.77 0 7.73-5.06 12.8T408-534.15h-81.69q-13.67 0-22.91-9.25-9.25-9.24-9.25-22.91V-648q0-7.73 5.06-12.79 5.05-5.06 12.77-5.06 7.73 0 12.8 5.06t5.07 12.79v55.62q28-34.08 66.73-53.77 38.73-19.7 83.42-19.7 77.37 0 131.61 54.31 54.24 54.3 54.24 131.77 0 77.46-54.24 131.54t-131.73 54.08ZM228.31-164q-27.01 0-45.66-18.65Q164-201.3 164-228.31V-358q0-11.05 7.42-18.53 7.42-7.47 18.38-7.47 10.97 0 18.58 7.47Q216-369.05 216-358v129.69q0 4.62 3.85 8.46 3.84 3.85 8.46 3.85H358q11.05 0 18.53 7.42 7.47 7.42 7.47 18.38 0 10.97-7.47 18.58Q369.05-164 358-164H228.31Zm503.38 0H602q-11.05 0-18.53-7.42-7.47-7.42-7.47-18.38 0-10.97 7.47-18.58Q590.95-216 602-216h129.69q4.62 0 8.46-3.85 3.85-3.84 3.85-8.46V-358q0-11.05 7.42-18.53 7.42-7.47 18.38-7.47 10.97 0 18.58 7.47Q796-369.05 796-358v129.69q0 27.01-18.65 45.66Q758.7-164 731.69-164ZM164-602v-129.69q0-27.01 18.65-45.66Q201.3-796 228.31-796H358q11.05 0 18.53 7.42 7.47 7.42 7.47 18.38 0 10.97-7.47 18.58Q369.05-744 358-744H228.31q-4.62 0-8.46 3.85-3.85 3.84-3.85 8.46V-602q0 11.05-7.42 18.53-7.42 7.47-18.38 7.47-10.97 0-18.58-7.47Q164-590.95 164-602Zm580 0v-129.69q0-4.62-3.85-8.46-3.84-3.85-8.46-3.85H602q-11.05 0-18.53-7.42-7.47-7.42-7.47-18.38 0-10.97 7.47-18.58Q590.95-796 602-796h129.69q27.01 0 45.66 18.65Q796-758.7 796-731.69V-602q0 11.05-7.42 18.53-7.42 7.47-18.38 7.47-10.97 0-18.58-7.47Q744-590.95 744-602Z"/></svg>
